X: 35
T: the Frisky
%%VWML:Thompsons1774-3047-p18-0
F:http://www.vwml.org/record/Thompsons1774/3047/p18 M: 6/8
L: 1/8
Z: 2011 John Chambers <jc:trillian.mit.edu>
B: Charles & Samuel Thompson eds "Twenty Four Country Dances", London 1774, p.18 #1 
K: A
%-------------------------
|: c>de e>dc | Bcd c2A | c>de e>dc | B>AG A3 :|
|: cBc cBc | ded c2A | cBc cBc | B>AG A3 :|
|: a>ba g>ag | f>gf f>ed | c>de f>ed | c>dB A3 :|
|: E[AC]E F[AD]F | Bcd cBA | E[AC]E F[AD]F | dcB A3 :|
% - - - - - - - - Dance description - - - - - - - -
%%begintext align
%% Turn Right hands & cast off 1 Cu. .|. .|. turn Left & cast
%% off below the 3c Cu. :|. :|: hands round 6 .|:. :|:. lead up to
%% the top foot it & cast off .|:: :|::
%%endtext
T: the Dress'd Ship R: reel
M: C|
L: 1/8
Z: 2011 John Chambers <jc:trillian.mit.edu>
B: Charles & Samuel Thompson eds "Twenty Four Country Dances", London 1774, p.18 #2 
K: A
%-------------------------
e |\
cAEc d2(d/e/f) | ecac dB-Be |\
cAEc dfea | fdBe cA-A :|
|: f/g/ |\
aecA f/g/a/f/ ec | dfec dB- Bf/g/ |\
aecA f/g/a/f/ ec | fdBe cA-A :|
% - - - - - - - - Dance description - - - - - - - -
%%begintext align
%% 1st Man set to the 2d Wo. & turn .|. 1st
%% Wo. do the same :|. cast off 1 Cu. &
%% Allemand .|: cast up & Allemand & lead
%% down in the 2d Cu.s place :|:
%%endtext
